X:1
T:Of a' the Airts the Wind Can Blaw
T:Of a' the Airts the Wind Can Blaw
T:Wm Marshall
C:Wm Marshall
L:1/8
M:4/4
K:D
V:1 treble 
V:1
 A,2 |"D" D3 D D3 D | D2 A,2 D2 z B |"D" A2 F2 E3 D |"G" C2 B,4 A,B, |"D" D3 D D2 D2 | %6
"D" D2 A,2 D2 z B |"Em" A2 B2 d2 F2 |"A7" A6 B2 |"D" A2 B2 d2 F2 |"D" A2 F2 E2 z D | %11
"G" E2 FF GFED |"G" C2 B,4 A,B, |"D" D3 D D2 D2 |"D" D2 A,2 D2 z B |"D" A2 F2"A7" E2 F2 |"A7" A6 || %17
 A,G, |"D" F,2 A,2 D2 A,2 | B,2 A,2 D2 z E |"D" F2 A2 GFED |"G" C2 B,4 A,G, |"D" F,2 A,2 D2 A,2 | %23
 B,2 A,2 D2 z E |"D" F2 G2 ABcd |"A" A6 Bc |"D" d3 c B2 A2 |"G" B2 A2 G3 F |"G" E2 FF GFED | %29
"G" C2 B,4 A,B, |"D" D3 D D2 D2 |"D" D2 A,2 D2 z B |"D" A2 F2"A7" E2 F2 |"A7" A6 || %34

